!!!COM: Britten, (Edward) Benjamin
!!!OTL: War Requiem for Soprano, Tenor and Baritone Solo, Chorus, Boys' Choir, Chamber Orchestra, Full Orchestra and Organ, op. 66
!!!OMV: 6: Libera me (Free Me)
!!!example: 819
!!!work: Bri-40
**kern	**dynam	**kern	**dynam	**kern	**dynam	**kern	**dynam	**kern	**dynam	**kern	**kern	**dynam	**text	**kern	**kern	**dynam	**kern	**dynam	**kern	**kern	**dynam	**kern
*grp:A	*	*grp:A	*	*grp:A	*	*grp:A	*	*grp:A	*	*grp:B	*grp:B	*	*	*grp:A	*grp:A	*	*grp:A	*	*grp:A	*grp:A	*	*grp:A
*part12	*part12	*part11	*part11	*part10	*part10	*part9	*part9	*part8	*part8	*part7	*part6	*part6	*part6	*part5	*part5	*part5	*part4	*part4	*part3	*part2	*part2	*part1
*staff13	*	*staff12	*	*staff11	*	*staff10	*	*staff9	*	*staff8	*staff7	*	*	*staff6	*staff5	*	*staff4	*	*staff3	*staff2	*	*staff1
*I"Contrabass	*	*I"Violoncello	*	*I"Viola	*	*I"Violin II	*	*I"Violin I	*	*I"Bass	*I"Soprano Solo	*	*	*I"Piano	*	*	*I"Bass Drum	*	*I"Bassoon	*I"Oboe	*	*I"Flute
*I'Cb.	*	*I'Vc.	*	*I'Vla.	*	*I'Vln. II	*	*I'Vln. I	*	*I'B.	*I'S. Solo	*	*	*I'Pno.	*	*	*I'B. D.	*	*I'Bsn.	*I'Ob.	*	*I'Fl.
*clefF4	*	*clefF4	*	*clefC3	*	*clefG2	*	*clefG2	*	*clefF4	*clefG2	*	*	*clefF4	*clefF4	*	*clefX	*	*clefF4	*clefG2	*	*clefG2
*ITrd7c12	*	*	*	*	*	*	*	*	*	*	*	*	*	*	*	*	*stria1	*	*	*	*	*
*k[b-e-]	*	*k[b-e-]	*	*k[b-e-]	*	*k[b-e-]	*	*k[b-e-]	*	*k[b-e-]	*k[b-e-]	*	*	*k[b-e-]	*k[b-e-]	*	*	*	*k[b-e-]	*k[b-e-]	*	*k[b-e-]
*B-:	*	*B-:	*	*B-:	*	*B-:	*	*B-:	*	*B-:	*B-:	*	*	*B-:	*B-:	*	*	*	*B-:	*B-:	*	*B-:
*M3/4	*	*M3/4	*	*M3/4	*	*M3/4	*	*M3/4	*	*M3/4	*M3/4	*	*	*M3/4	*M3/4	*	*M3/4	*	*M3/4	*M3/4	*	*M3/4
*MM121	*	*MM121	*	*MM121	*	*MM121	*	*MM121	*	*MM121	*MM121	*	*	*MM121	*MM121	*	*MM121	*	*MM121	*MM121	*	*MM121
!!LO:REH:t=108
=96	=96	=96	=96	=96	=96	=96	=96	=96	=96	=96	=96	=96	=96	=96	=96	=96	=96	=96	=96	=96	=96	=96
*^	*	*^	*	*^	*	*	*	*	*	*	*	*	*	*	*	*	*	*	*^	*	*	*
!	!	!	!	!	!	!	!	!	!	!	!LO:TX:t=[half]=[half-dot]=88 Quicker (più allegro)	!	!	!LO:TX:rj:t=[quarter]=[quarter]=88	!LO:DY:t=rather %s	!	!	!	!LO:DY:t=%s short (without Ped.)	!	!	!LO:T:a	!LO:T:b	!	!	!LO:TX:t=[half]=[half-dot]=88 Quicker (più allegro)
!	!LO:TX:rj:b:t=2. pizz.	!LO:DY:a:t=%s spiccato	!LO:TX:rj:t=div. 1. arco	!LO:TX:rj:b:t=2. pizz.	!LO:DY:a:t=%s spiccato	!LO:TX:rj:t=div. 1. arco	!LO:TX:rj:b:t=2. pizz.	!LO:DY:a:t=%s spiccato	!	!	!	!	!LO:N:vis=8	!LO:N:vis=8	!	!	!	!	!	!	!	!	!	!	!	!
4GGG#X`v	4GGG#X	pp	4GG#X`	4GG#X	pp	4G#X`v	4G#X	pp	2.r	.	2.r	.	4.AA]	4.een'	p	Tre-	4GGG#X`	4G#X`	pp	4eR)/`	.	4a]	4AA]	[2.a [2.een	pp	4eenX]
*	*	*	*	*	*	*	*	*	*	*	*	*	*	*	*	*	*	*	*	*	*	*v	*v	*	*	*
.	.	.	.	.	.	.	.	.	.	.	.	.	.	.	.	.	.	.	.	.	.	.	.	.	.
4AAA`	4AAA	.	4AA`	4AA	.	4A`	4A	.	.	.	.	.	.	.	.	.	4AAA`	4A`	.	4r	.	4r	.	.	4r
!	!	!	!	!	!	!	!	!	!	!	!	!	!LO:N:vis=8	!LO:N:vis=8	!	!	!	!	!	!	!	!	!	!	!
.	.	.	.	.	.	.	.	.	.	.	.	.	4.r	4.a'>	.	-mens	.	.	.	.	.	.	.	.	.
4BBBn`	4BBBn	.	4BBn`	4BBn	.	4Bn`	4Bn	.	.	.	.	.	.	.	.	.	4BBBn`	4Bn`	.	4r	.	4r	.	.	4r
=97	=97	=97	=97	=97	=97	=97	=97	=97	=97	=97	=97	=97	=97-	=97-	=97	=97	=97	=97	=97	=97	=97	=97	=97	=97	=97
8FF^L	4rCC	.	8F^L	4rGG	.	8f^L	4rC	.	2.r	.	2.r	.	4r	4r	.	.	8FF^L	8F^L 8f	.	8eR^L/	pp	2.r	2.a_ 2.ee_	.	2.r
8AAA^J	.	.	8AA^J	.	.	8A^J	.	.	.	.	.	.	.	.	.	.	8AAA^J 8AA	8A^J	.	8eR^J/	.	.	.	.	.
4EEn^	4rCC	.	4En^	4rGG	.	4en^	4rC	.	.	.	.	.	4ryy	4ryy	.	.	4EEn^	4En^ 4en	.	4eR^/	.	.	.	.	.
4GGG#X`	4GGG#X	.	4GG#X`	4GG#X	.	4G#X`	4G#X	.	.	.	.	.	4ryy	4ryy	.	.	4GGG#X`	4G#X`	.	4r	.	.	.	.	.
=98	=98	=98	=98	=98	=98	=98	=98	=98	=98	=98	=98	=98	=98-	=98-	=98	=98	=98	=98	=98	=98	=98	=98	=98	=98	=98
!	!	!	!	!	!	!	!	!	!	!	!	!	!LO:N:vis=2	!LO:N:vis=8	!	!	!	!	!	!	!	!	!	! 	!LO:TX:t=P:problem:bar lines disappearing in other parts due to hidden bar line in soprano and bass
4AAA`	4AAA	.	4AA`	4AA	.	4A`	4A	.	2.r	.	2.r	.	4.r	4.eeny'	.	fac-	4AAA`	4A`	.	4eR/`	.	2.r	2.a_ 2.ee_	.	2.r
.	.	.	.	.	.	.	.	.	.	.	.	.	.	.	.	.	.	.	.	.	.	.	.	.	.
4BBBn`	4BBBn	.	4BBn`	4BBn	.	4Bn`	4Bn	.	.	.	.	.	.	.	.	.	4BBBn`	4Bn`	.	4r	.	.	.	.	.
!	!	!	!	!	!	!	!	!	!	!	!	!	!	!LO:N:vis=8	!	!	!	!	!	!	!	!	!	!	!
.	.	.	.	.	.	.	.	.	.	.	.	.	4.ryy	4.a'>	.	-tus	.	.	.	.	.	.	.	.	.
8CC#X^L	4rCC	.	8C#X^L	4rGG	.	8c#X^L	4rC	.	.	.	.	.	.	.	.	.	8CC#X^L	8c#X^L	.	8eR/^L	.	.	.	.	.
8GG#X^J	.	.	8G#X^J	.	.	8g#X^J	.	.	.	.	.	.	.	.	.	.	8GG#X^J	8G#X^J 8g#X	.	8eR/^J	.	.	.	.	.
=99	=99	=99	=99	=99	=99	=99	=99	=99	=99	=99	=99	=99	=99-	=99-	=99	=99	=99	=99	=99	=99	=99	=99	=99	=99	=99
!	!	!	!	!	!	!	!	!	!	!	!	!	!	!LO:N:vis=8	!	!	!	!	!	!	!	!	!	!	!
4FF#X^	4rCC	<	4F#X^	4rGG	<	4f#X^	4rC	<	2.r	.	2.r	.	2.ryy	4.r	.	.	4FF#X^	4F#X^ 4f#X	<	4eR/^	.	2.r	2.a_ 2.ee_	.	2.r
4AAA#X`	4AAA#X	.	4AA#X`	4AA#X	.	4A#X`	4A#X	.	.	.	.	.	.	.	.	.	4AAA#X`	4A#X`	.	4r	.	.	.	.	.
!	!	!	!	!	!	!	!	!	!	!	!	!	!	!LO:N:vis=8	!	!	!	!	!	!	!	!	!	!	!
.	.	.	.	.	.	.	.	.	.	.	.	.	.	4.ff'	<	sum	.	.	.	.	.	.	.	.	.
4BBB#X`	4BBB#X	.	4BB#X`	4BB#X	.	4B#X`	4B#X	.	.	.	.	.	.	.	.	.	4BBB#X`	4B#X`	.	4eR/`	.	.	.	.	.
*	*	*	*	*	*	*	*	*	*	*	*	*	*	*	*	*	*	*clefG2	*	*	*	*	*	*	*
=100	=100	=100	=100	=100	=100	=100	=100	=100	=100	=100	=100	=100	=100	=100	=100	=100	=100	=100	=100	=100	=100	=100	=100	=100	=100
!	!	!	!	!	!	!	!	!	!	!	!	!	!	!LO:N:vis=8	!	!	!	!	!	!	!	!	!	!	!
4CC#X`	4CC#X	.	4C#X`	4C#X	.	4c#X`	4c#X	.	2.r	.	2.r	.	2.ryy	4.een'	.	e-	4CC#X`	4c#X`	.	4r	.	2.r	2.a_ 2.ee_	.	2.r
.	.	.	.	.	.	.	.	.	.	.	.	.	.	.	.	.	.	.	.	.	.	.	.	.	.
4DD#X`	4DD#X	.	4D#X`	4D#X	.	4d#X`	4d#X	.	.	.	.	.	.	.	.	.	4DD#X`	4d#X`	.	4eR/`	<	.	.	.	.
!	!	!	!	!	!	!	!	!	!	!	!	!	!LO:N:vis=1	!LO:N:vis=8	!	!	!	!	!	!	!	!	!	!	!
.	.	.	.	.	.	.	.	.	.	.	.	.	.	4.a'>	[	-go	.	.	.	.	.	.	.	.	.
4EE#X`	4EE#X	[[	4E#X`	4E#X	[[	4e#X`	4e#X	[[	.	.	.	.	.	.	.	.	4EE#X`	4e#X`	.	4eR/`	[[	.	.	.	.
=101	=101	=101	=101	=101	=101	=101	=101	=101	=101	=101	=101	=101	=101-	=101-	=101	=101	=101	=101	=101	=101	=101	=101	=101	=101	=101
8BB#X^L	4BB#X^	.	8B#X^L	4B#X^	.	8b#X^L	4b#X^	.	2.r	.	2.r	.	2.r	4r	.	.	8BB#X^L	8B#X^L 8b#X	[	8eR/^L	p	2.r	2.a_ 2.ee_	.	2.r
8EE#X^J	.	.	8E#X^J	.	.	8e#X^J	.	.	.	.	.	.	.	.	.	.	8EE#X^J	8e#X^J	.	8eR/^J	.	.	.	.	.
4AA#X^	4rC	.	4A#X^	4rGG	.	4a#X^	4rC	.	.	.	.	.	.	4ryy	.	.	4AA#X^	4A#X^ 4a#X	.	4eR/^	.	.	.	.	.
!	!	!LO:HP:t=dim.	!	!	!LO:HP:t=dim.	!	!	!LO:HP:t=dim.	!	!	!	!	!	!	!	!	!	!	!LO:HP:t=dim.	!	!	!	!	!	!
4GG#X`	4GG#X`	>	4G#X`	4G#X`	>	4g#X`	4g#X`	>	.	.	.	.	.	4ryy	.	.	4GG#X`	4g#X`	>	4r	.	.	.	.	.
=102	=102	=102	=102	=102	=102	=102	=102	=102	=102	=102	=102	=102	=102-	=102-	=102	=102	=102	=102	=102	=102	=102	=102	=102	=102	=102
!	!	!	!	!	!	!	!	!	!	!	!	!	!	!LO:N:vis=8	!	!	!	!	!	!	!	!	!	!	!
4GGn`	4GGn`	.	4Gn`	4Gn`	.	4gn`	4gn`	.	2.r	.	2.r	.	2.ryy	4.een'	pp	e-	4GGn`	4gn`	.	4eR/`	>	2.r	2.a_ 2.ee_	.	2.r
.	.	.	.	.	.	.	.	.	.	.	.	.	.	.	.	.	.	.	.	.	.	.	.	.	.
4FFn`	4FFn`	.	4Fn`	4Fn`	.	4fn`	4fn`	.	.	.	.	.	.	.	.	.	4FF`	4f`	.	4r	.	.	.	.	.
!	!	!	!	!	!	!	!	!	!	!	!	!	!	!LO:N:vis=8	!	!	!	!	!	!	!	!	!	!	!
.	.	.	.	.	.	.	.	.	.	.	.	.	.	4.a'>	.	-go	.	.	.	.	.	.	.	.	.
8EE-X^L	4rC	.	8E-X^L	4rGG	.	8e-X^L	4rC	.	.	.	.	.	.	.	.	.	8EE-X^L	4e-X`	.	8eR/^L	.	.	.	.	.
8AAA-X^J	.	.	8AA-X^J	.	.	8A-X^J	.	.	.	.	.	.	.	.	.	.	8AAA-X^J 8AA-X	.	.	8eR/^J	.	.	.	.	.
=103	=103	=103	=103	=103	=103	=103	=103	=103	=103	=103	=103	=103	=103-	=103-	=103	=103	=103	=103	=103	=103	=103	=103	=103	=103	=103
!	!	!	!	!	!	!	!	!	!LO:TX:rj:t=div. 1. arco	!LO:DY:a:t=%s spiccato	!LO:TX:rj:t=div. 1. arco	!LO:DY:a:t=%s spiccato	!	!LO:N:vis=8	!	!	!	!	!	!	!	!	!	!	!
!	!	!	!	!	!	!	!	!	!LO:TX:rj:b:t=2. pizz.	!LO:HP:a	!LO:TX:rj:b:t=2. pizz.	!LO:HP:a	!	!	!	!	!	!	!	!	!	!	!	!	!
*	*	*	*	*	*	*	*	*	*^	*	*^	*	*	*	*	*	*	*	*	*	*	*	*	*	*
4DD-X^	4DD-X^	>	4D-X^	4D-X^	>	4d-X^	4d-X^	>	4a`	4a`	pp <	4aa`	4aa`	pp <	2.ryy	4.r	.	.	4DD-X^	4aan`	< pp	4eR/^	.	2.r	2.a] 2.ee]	.	2.r
4CC`	4CC`	.	4C`	4C`	.	4c`	4c`	.	4cc#X`	4cc#X`	.	4ccc#X`	4ccc#X`	.	.	.	.	.	4CC#X`	4ccc#X`	.	4r	.	.	.	.	.
!	!	!	!	!	!	!	!	!	!	!	!	!	!	!	!	!LO:N:vis=8	!	!	!	!	!	!	!	!	!	!	!
.	.	.	.	.	.	.	.	.	.	.	.	.	.	.	.	4.een'	<	et	.	.	.	.	.	.	.	.	.
4BBB-X`	4BBB-X`	]	4BB-X`	4BB-X`	]	4B-X`	4B-X`	]	4bn`	4bn`	[	4bbn`	4bbn`	[	.	.	.	.	4BBB-X`	4bbn`	[[	4eR/`	]	.	.	.	.
.	.	.	.	.	.	.	.	.	.	.	.	.	.	.	.	.	.	.	.	.	.	.	.	.	.	.	.
=	=	=	=	=	=	=	=	=	=	=	=	=	=	=	=	=	=	=	=	=	=	=	=	=	=	=	=
*-	*-	*-	*-	*-	*-	*-	*-	*-	*-	*-	*-	*-	*-	*-	*-	*-	*-	*-	*-	*-	*-	*-	*-	*-	*-	*-	*-
!!!system-decoration: [(s1,s2,s3)]s4{(s5,s6)}<s7>,[(s8)][(s9,s10,s11,s12,s13)]
!!!CDT: 1913/11/22-1976/12/04
!!!CBL: Lowestoft, England
!!!CDL: Aldeburgh, England
!!!CNT: English
!!!AGN: Vocal; Choral
!!!MCN: Davies, Meredith; Britten, Benjamin
!!!MDT: 1962/05/30
!!!MGN: Coventry Festival Chorus; Boys of Holy Trinity, Leamington and Holy Trinity, Stratford, CBSO; Melos Ensemble
!!!MLC: Coventry, United Kingdom
!!!MPD: 1962
!!!MPN: Fischer-Dieskau, Dietrich; Harper, Heather; Pears, Peter
!!!ODT: 1962
!!!PDT: 1962
!!!excerpt-start-measure: 96
!!!excerpt-end-measure: 103
!!!excerpt-start-time: 4:17
!!!excerpt-end-time: 4:22
!!!EEV: 2020/01/27
!!!ONB: Converted from MusicXML on 2020/01/27!!!COM: Britten, (Edward) Benjamin
!!!OTL: War Requiem for Soprano, Tenor and Baritone Solo, Chorus, Boys' Choir, Chamber Orchestra, Full Orchestra and Organ, op. 66
!!!OMV: 6: Libera me (Free Me)
!!!example: 819
!!!work: Bri-40
**kern	**dynam	**dynam	**dynam	**dynam	**kern	**dynam	**kern	**dynam	**kern	**dynam	**kern	**dynam	**dynam	**blank	**kern	**kern	**dynam	**kern	**kern	**dynam	**kern	**kern	**dynam	**dynam
*part12	*	*	*	*part12	*part11	*part11	*part10	*part10	*part9	*part9	*part8	*part8	*part8	*	*part7	*part6	*part6	*part5	*part5	*part5	*part4	*part5	*	*
*staff13	*	*	*	*	*staff12	*	*staff11	*	*staff10	*	*staff9	*	*	*	*staff8	*staff7	*	*staff6	*staff5	*	*staff4	*staff5	*	*
*I"Contrabass	*	*	*	*	*I"Violoncello	*	*I"Viola	*	*I"Violin II	*	*I"Violin I	*	*	*	*I"Bass	*I"Soprano Solo	*	*I"Piano	*	*	*I"Bass Drum	*	*	*
*I'Cb.	*	*	*	*	*I'Vc.	*	*I'Vla.	*	*I'Vln. II	*	*I'Vln. I	*	*	*	*I'B.	*I'S. Solo	*	*I'Pno.	*	*	*I'B. D.	*	*	*
*clefF4	*	*	*	*	*clefF4	*	*clefC3	*	*clefG2	*	*clefG2	*	*	*	*clefF4	*clefG2	*	*clefF4	*clefF4	*	*clefpercussion0	*clefF4	*	*
*k[b-e-]	*	*	*	*	*k[b-e-]	*	*k[b-e-]	*	*k[b-e-]	*	*k[b-e-]	*	*	*	*k[b-e-]	*k[b-e-]	*	*k[b-e-]	*k[b-e-]	*	*	*k[b-e-]	*	*
*B-:	*	*	*	*	*B-:	*	*B-:	*	*B-:	*	*B-:	*	*	*	*B-:	*B-:	*	*B-:	*B-:	*	*	*B-:	*	*
*M3/4	*	*	*	*	*M3/4	*	*M3/4	*	*M3/4	*	*M3/4	*	*	*	*M3/4	*M3/4	*	*M3/4	*M3/4	*	*M3/4	*M3/4	*	*
*MM121	*	*	*	*	*MM121	*	*MM121	*	*MM121	*	*MM121	*	*	*	*MM121	*MM121	*	*MM121	*MM121	*	*MM121	*MM121	*	*
=96	=96	=96	=96	=96	=96	=96	=96	=96	=96	=96	=96	=96	=96	=96	=96	=96	=96	=96	=96	=96	=96	=96	=96	=96
4GGG#X`	.	.	.	pp	4GG#X`	pp	4G#X`	pp	2.r	.	2.r	.	.	.	8AA	8een'	p	4GGG#X`	4G#X`	pp	4x`	4G#X`	.	.
.	.	.	.	.	.	.	.	.	.	.	.	.	.	.	8r	8ryy	.	.	.	.	.	.	.	.
4AAA`	.	.	.	.	4AA`	.	4A`	.	.	.	.	.	.	.	4r	8ryy	.	4AAA`	4A`	.	4r	4A`	.	.
.	.	.	.	.	.	.	.	.	.	.	.	.	.	.	.	8a'	.	.	.	.	.	.	.	.
4BBBn`	.	.	.	.	4BBn`	.	4Bn`	.	.	.	.	.	.	.	4r	4ryy	.	4BBBn`	4Bn`	.	4r	4Bn`	.	.
=97	=97	=97	=97	=97	=97	=97	=97	=97	=97	=97	=97	=97	=97	=97	=97	=97	=97	=97	=97	=97	=97	=97	=97	=97
8FF^L	.	.	.	.	8F^L	.	8f^L	.	2.r	.	2.r	.	.	.	2.r	2.ryy	.	8FF^L	8F^L 8f	.	8x^L	8F^L 8f	.	.
8AAA^J	.	.	.	.	8AA^J	.	8A^J	.	.	.	.	.	.	.	.	.	.	8AAA^J 8AA	8A^J	.	8x^J	8A^J	.	.
4EEn^	.	.	.	.	4En^	.	4en^	.	.	.	.	.	.	.	.	.	.	4EEn^	4En^ 4en	.	4x^	4En^ 4en	.	.
4GGG#X`	.	.	.	.	4GG#X`	.	4G#X`	.	.	.	.	.	.	.	.	.	.	4GGG#X`	4G#X`	.	4r	4G#X`	.	.
=98	=98	=98	=98	=98	=98	=98	=98	=98	=98	=98	=98	=98	=98	=98	=98	=98	=98	=98	=98	=98	=98	=98	=98	=98
4AAA`	.	.	.	.	4AA`	.	4A`	.	2.r	.	2.r	.	.	.	2.r	8een'	.	4AAA`	4A`	.	4x`	4A`	.	.
.	.	.	.	.	.	.	.	.	.	.	.	.	.	.	.	8ryy	.	.	.	.	.	.	.	.
4BBBn`	.	.	.	.	4BBn`	.	4Bn`	.	.	.	.	.	.	.	.	8ryy	.	4BBBn`	4Bn`	.	4r	4Bn`	.	.
.	.	.	.	.	.	.	.	.	.	.	.	.	.	.	.	8a'	.	.	.	.	.	.	.	.
8CC#X^L	.	.	.	.	8C#X^L	.	8c#X^L	.	.	.	.	.	.	.	.	4ryy	.	8CC#X^L	8c#X^L	.	8x^L	8c#X^L	.	.
8GG#X^J	.	.	.	.	8G#X^J	.	8g#X^J	.	.	.	.	.	.	.	.	.	.	8GG#X^J	8G#X^J 8g#X	.	8x^J	8G#X^J 8g#X	.	.
=99	=99	=99	=99	=99	=99	=99	=99	=99	=99	=99	=99	=99	=99	=99	=99	=99	=99	=99	=99	=99	=99	=99	=99	=99
4FF#X^	.	.	.	<	4F#X^	<	4f#X^	<	2.r	.	2.r	.	.	.	2.r	4ryy	.	4FF#X^	4F#X^ 4f#X	<	4x^	4F#X^ 4f#X	.	.
4AAA#X`	.	.	.	.	4AA#X`	.	4A#X`	.	.	.	.	.	.	.	.	8ryy	.	4AAA#X`	4A#X`	.	4r	4A#X`	.	.
.	.	.	.	.	.	.	.	.	.	.	.	.	.	.	.	8ff'	<	.	.	.	.	.	.	.
4BBB#X`	.	.	.	.	4BB#X`	.	4B#X`	.	.	.	.	.	.	.	.	4ryy	.	4BBB#X`	4B#X`	.	4x`	4B#X`	.	.
*	*	*	*	*	*	*	*	*	*	*	*	*	*	*	*	*	*	*	*clefG2	*	*	*clefG2	*	*
=100	=100	=100	=100	=100	=100	=100	=100	=100	=100	=100	=100	=100	=100	=100	=100	=100	=100	=100	=100	=100	=100	=100	=100	=100
4CC#X`	.	.	.	.	4C#X`	.	4c#X`	.	2.r	.	2.r	.	.	.	2.r	8een'	.	4CC#X`	4c#X`	.	4r	4c#X`	.	.
.	.	.	.	.	.	.	.	.	.	.	.	.	.	.	.	8ryy	.	.	.	.	.	.	.	.
4DD#X`	.	.	.	.	4D#X`	.	4d#X`	.	.	.	.	.	.	.	.	8ryy	.	4DD#X`	4d#X`	.	4x`	4d#X`	.	.
.	.	.	.	.	.	.	.	.	.	.	.	.	.	.	.	8a'	[	.	.	.	.	.	.	.
4EE#X`	.	.	.	[[	4E#X`	[[	4e#X`	[[	.	.	.	.	.	.	.	4ryy	.	4EE#X`	4e#X`	.	4x`	4e#X`	.	.
=101	=101	=101	=101	=101	=101	=101	=101	=101	=101	=101	=101	=101	=101	=101	=101	=101	=101	=101	=101	=101	=101	=101	=101	=101
8BB#X^L	.	.	.	.	8B#X^L	.	8b#X^L	.	2.r	.	2.r	.	.	.	2.r	2.ryy	.	8BB#X^L	8B#X^L 8b#X	[	8x^L	8B#X^L 8b#X	.	.
8EE#X^J	.	.	.	.	8E#X^J	.	8e#X^J	.	.	.	.	.	.	.	.	.	.	8EE#X^J	8e#X^J	.	8x^J	8e#X^J	.	.
4AA#X^	.	.	.	.	4A#X^	.	4a#X^	.	.	.	.	.	.	.	.	.	.	4AA#X^	4A#X^ 4a#X	.	4x^	4A#X^ 4a#X	.	.
!LO:TX:b:t=dim.	!	!	!	!	!LO:TX:b:t=dim.	!	!LO:TX:b:t=dim.	!	!	!	!	!	!	!	!	!	!	!	!LO:TX:b:t=dim.	!	!	!LO:TX:b:t=dim.	!	!
4GG#X`	.	.	.	.	4G#X`	.	4g#X`	.	.	.	.	.	.	.	.	.	.	4GG#X`	4g#X`	.	4r	4g#X`	.	.
=102	=102	=102	=102	=102	=102	=102	=102	=102	=102	=102	=102	=102	=102	=102	=102	=102	=102	=102	=102	=102	=102	=102	=102	=102
4GGn`	.	.	.	.	4Gn`	.	4gn`	.	2.r	.	2.r	.	.	.	2.r	8een'	pp	4GGn`	4gn`	.	4x`	4gn`	.	.
.	.	.	.	.	.	.	.	.	.	.	.	.	.	.	.	8ryy	.	.	.	.	.	.	.	.
4FFn`	.	.	.	.	4Fn`	.	4fn`	.	.	.	.	.	.	.	.	8ryy	.	4FF`	4f`	.	4r	4f`	.	.
.	.	.	.	.	.	.	.	.	.	.	.	.	.	.	.	8a'	.	.	.	.	.	.	.	.
8EE-X^L	.	.	.	.	8E-X^L	.	8e-X^L	.	.	.	.	.	.	.	.	4ryy	.	8EE-X^L	4e-X`	.	8x^L	4e-X`	.	.
8AAA-X^J	.	.	.	.	8AA-X^J	.	8A-X^J	.	.	.	.	.	.	.	.	.	.	8AAA-X^J 8AA-X	.	.	8x^J	.	.	.
=103	=103	=103	=103	=103	=103	=103	=103	=103	=103	=103	=103	=103	=103	=103	=103	=103	=103	=103	=103	=103	=103	=103	=103	=103
4DD-X^	.	.	.	< pp	4D-X^	< pp	4d-X^	< pp	4a`	< pp	4aa`	< pp	< pp	.	2.r	4ryy	.	4DD-X^	4aan`	< pp >	4x^	4aan`	.	.
4CC`	.	.	.	.	4C`	.	4c`	.	4cc#X`	.	4ccc#X`	.	.	.	.	8ryy	.	4CC#X`	4ccc#X`	.	4r	4ccc#X`	.	.
!	!	!	!	!	!	!	!	!	!	!	!	!	!	!	!	!LO:TX:a:t=cresc.	!	!	!	!	!	!	!	!
.	.	.	.	.	.	.	.	.	.	.	.	.	.	.	.	8een'	.	.	.	.	.	.	.	.
4BBB-X`	.	.	.	[[	4BB-X`	[[	4B-X`	[[	4bn`	[[	4bbn`	[[	[[	.	.	8ryy	.	4BBB-X`	4bbn`	]]	4x`	4bbn`	.	.
.	.	.	.	.	.	.	.	.	.	.	.	.	.	.	.	8ryy	.	.	.	.	.	.	.	.
=	=	=	=	=	=	=	=	=	=	=	=	=	=	=	=	=	=	=	=	=	=	=	=	=
*-	*-	*-	*-	*-	*-	*-	*-	*-	*-	*-	*-	*-	*-	*-	*-	*-	*-	*-	*-	*-	*-	*-	*-	*-
!!!system-decoration: [(s1,s2,s3)],<s4>,{(s5,s6)},<s7>,[(s8)],[(s9,s10,s11,s12,s13)]
!!!RDF**kern: > = above
!!!RDF**kern: < = below
!!!CDT: 1913/11/22-1976/12/04
!!!CBL: Lowestoft, England
!!!CDL: Aldeburgh, England
!!!CNT: English
!!!AGN: Vocal; Choral
!!!MCN: Davies, Meredith; Britten, Benjamin
!!!MDT: 1962/05/30
!!!MGN: Coventry Festival Chorus; Boys of Holy Trinity, Leamington and Holy Trinity, Stratford, CBSO; Melos Ensemble
!!!MLC: Coventry, United Kingdom
!!!MPD: 1962
!!!MPN: Fischer-Dieskau, Dietrich; Harper, Heather; Pears, Peter
!!!ODT: 1962
!!!PDT: 1962
!!!excerpt-start-measure: 96
!!!excerpt-end-measure: 103
!!!excerpt-start-time: 4:17
!!!excerpt-end-time: 4:22
!!!ONB: Converted from MusicXML on 2020/01/27
!!!EED: Jason Lee
!!!EEV: 2023/01/23
!!!EED2: Bryan Bell
!!!EEV2: 2023/01/24
